src/OnboardingSPA/static/icons/dog-white.svg

<svg fill="none" height="20" viewBox="0 0 25 20" width="25" xmlns="http://www.w3.org/2000/svg"><g stroke="#fff" stroke-linecap="round" stroke-linejoin="round"><g stroke-width="1.2"><path d="m6.47089 13.4962h-2.50832c-.09515 0-.1865-.0039-.27785-.0154-1.78514-.1838-2.729086-2.2444-1.85365-3.81866l3.00694-5.39674c.95157-1.70827 2.74812-2.7654 4.69692-2.7654h5.93017c1.9488 0 3.7453 1.05713 4.6969 2.76923l3.0069 5.39675c.8755 1.57422-.0685 3.63482-1.8536 3.81872-.0914.0076-.1865.0153-.2779.0153h-2.5045"/><path d="m18.5 10.5v4.764c0 1.7855-1.3447 3.236-3 3.236-1.6553 0-3-1.9612-3-1.9612s-1.3447 1.9612-3 1.9612c-1.6553 0-3-1.4505-3-3.236v-4.764"/><path clip-rule="evenodd" d="m12.5 10.5183s-2-.3154-2 1.7087c0 .5482 2 1.273 2 1.273s2-.7248 2-1.273c0-2.0279-2-1.7087-2-1.7087z" fill-rule="evenodd"/></g><path clip-rule="evenodd" d="m9.1305 8c0 .27922-.14329.5-.31525.5-.17195 0-.31525-.22727-.31525-.5s.1433-.5.31525-.5c.17196 0 .31525.22727.31525.5z" fill-rule="evenodd" stroke-width="2"/><ellipse cx="16.1847" cy="8" rx=".315251" ry=".5" stroke-width="2"/></g></svg>

<svg width="25" height="20" viewBox="0 0 25 20" fill="none" xmlns="http://www.w3.org/2000/svg">
<g id="dog">
<path id="Path" d="M6.47089 13.4962H3.96257C3.86742 13.4962 3.77607 13.4923 3.68472 13.4808C1.89958 13.297 0.955634 11.2364 1.83107 9.66214L4.83801 4.2654C5.78958 2.55713 7.58613 1.5 9.53493 1.5H15.4651C17.4139 1.5 19.2104 2.55713 20.162 4.26923L23.1689 9.66598C24.0444 11.2402 23.1004 13.3008 21.3153 13.4847C21.2239 13.4923 21.1288 13.5 21.0374 13.5H18.5329" stroke="white" stroke-width="1.2" stroke-linecap="round" stroke-linejoin="round"/>
<path id="Path_2" d="M18.5 10.5V15.264C18.5 17.0495 17.1553 18.5 15.5 18.5V18.5C13.8447 18.5 12.5 16.5388 12.5 16.5388C12.5 16.5388 11.1553 18.5 9.5 18.5V18.5C7.8447 18.5 6.5 17.0495 6.5 15.264V10.5" stroke="white" stroke-width="1.2" stroke-linecap="round" stroke-linejoin="round"/>
<path id="Path_3" fill-rule="evenodd" clip-rule="evenodd" d="M12.5 10.5183C12.5 10.5183 10.5 10.2029 10.5 12.227C10.5 12.7752 12.5 13.5 12.5 13.5C12.5 13.5 14.5 12.7752 14.5 12.227C14.5 10.1991 12.5 10.5183 12.5 10.5183V10.5183Z" stroke="white" stroke-width="1.2" stroke-linecap="round" stroke-linejoin="round"/>
<g id="Group">
<path id="Path_4" fill-rule="evenodd" clip-rule="evenodd" d="M9.1305 8C9.1305 8.27922 8.98721 8.5 8.81525 8.5C8.6433 8.5 8.5 8.27273 8.5 8C8.5 7.72727 8.6433 7.5 8.81525 7.5C8.98721 7.5 9.1305 7.72727 9.1305 8Z" stroke="white" stroke-width="2" stroke-linecap="round" stroke-linejoin="round"/>
<ellipse id="Oval" cx="16.1847" cy="8" rx="0.315251" ry="0.5" stroke="white" stroke-width="2" stroke-linecap="round" stroke-linejoin="round"/>
</g>
</g>
</svg>
